packages/foundations/assets/icons/functional/images/human/user_24_filled.svg

<svg xmlns="http://www.w3.org/2000/svg" width="20" height="20" fill="none"><path fill="#1A1C1F" fill-rule="evenodd" d="M9.583 2.021a4 4 0 0 0-3.342 2.646c-.169.478-.221.795-.219 1.333.002.516.049.812.199 1.267.69 2.078 2.961 3.222 5.025 2.531A4.01 4.01 0 0 0 14 6.001a3.87 3.87 0 0 0-1.238-2.887 3.94 3.94 0 0 0-1.895-1.017c-.279-.062-1.012-.106-1.284-.076M5.45 12.049c-.32.06-.518.132-.845.304-.75.395-1.276 1.055-1.512 1.897-.072.256-.075.32-.075 1.65l-.001 1.383.078.15c.107.205.256.356.455.462l.167.088h12.566l.15-.078c.205-.107.356-.256.462-.455l.088-.167.01-1.271c.009-1.145.004-1.302-.054-1.583a2.97 2.97 0 0 0-1.65-2.127c-.642-.309-.187-.283-5.189-.29-3.532-.006-4.463.002-4.65.037"/></svg>

<svg width="20" height="20" viewBox="0 0 20 20" fill="none" xmlns="http://www.w3.org/2000/svg"><path d="M9.583 2.021 C 8.052 2.187,6.753 3.215,6.241 4.667 C 6.072 5.145,6.020 5.462,6.022 6.000 C 6.024 6.516,6.071 6.812,6.221 7.267 C 6.911 9.345,9.182 10.489,11.246 9.798 C 12.896 9.245,14.000 7.723,14.000 6.001 C 14.000 4.874,13.581 3.896,12.762 3.114 C 12.221 2.597,11.591 2.259,10.867 2.097 C 10.588 2.035,9.855 1.991,9.583 2.021 M5.450 12.049 C 5.130 12.109,4.932 12.181,4.605 12.353 C 3.855 12.748,3.329 13.408,3.093 14.250 C 3.021 14.506,3.018 14.570,3.018 15.900 L 3.017 17.283 3.095 17.433 C 3.202 17.638,3.351 17.789,3.550 17.895 L 3.717 17.983 10.000 17.983 L 16.283 17.983 16.433 17.905 C 16.638 17.798,16.789 17.649,16.895 17.450 L 16.983 17.283 16.993 16.012 C 17.002 14.867,16.997 14.710,16.939 14.429 C 16.744 13.475,16.159 12.721,15.289 12.302 C 14.647 11.993,15.102 12.019,10.100 12.012 C 6.568 12.006,5.637 12.014,5.450 12.049 " fill="#1A1C1F" stroke="none" fill-rule="evenodd"></path></svg>
